X:20601
T:Three Jolly Sheepskins
R:Polka
C:Trad.
O:England
Z:Paul Hardy's Annex Tunebook 2015 (see www.paulhardy.net). Creative Commons cc by-nc-sa licenced.
M:4/4
L:1/8
Q:1/4=140
K:G
cB|"D"A2 D2 A2 D2|"Am"c2c2 "Bm"BcdB|"D"A2D2A2D2|"G"DcBA G2:|
|:BA|"G"GABc "D"dedB|"Am"cdcA "Bm"BcBA|"G"GABc "D"dcdg|"Am"ecAF "G"G2:|G2|]

